svgs/thin/diamond-turn-right.svg

<svg xmlns="http://www.w3.org/2000/svg" viewBox="0 0 512 512"><!--! Font Awesome Pro 6.0.0-alpha3 by @fontawesome - https://fontawesome.com License - https://fontawesome.com/license (Commercial License) --><path d="M497.1 222.1l-208.1-208.1c-9.354-9.354-21.63-14.03-33.89-14.03c-12.26 0-24.5 4.677-33.85 14.03L14.03 222.1C4.676 231.5 .0002 243.7 .0004 255.1c.0002 12.26 4.676 24.52 14.03 33.87l208.1 208.1C231.5 507.3 243.7 511.1 256 511.1c12.26 0 24.52-4.677 33.87-14.03l208.1-208.1c9.352-9.353 14.03-21.61 14.03-33.87C511.1 243.7 507.3 231.5 497.1 222.1zM486.7 278.6l-208.1 208.1C272.5 492.7 264.5 496 256 496c-8.52 0-16.53-3.32-22.56-9.346L25.34 278.6c-12.44-12.44-12.44-32.68 0-45.12L233.4 25.34C239.5 19.32 247.5 16 256 16c8.521 0 16.53 3.318 22.56 9.344l208.1 208.1C499.1 245.9 499.1 266.1 486.7 278.6zM397.4 234.2l-88.04-80.08c-3.234-3-8.312-2.719-11.3 .5313c-2.969 3.25-2.734 8.312 .5469 11.28L371.3 232H224c-22.06 0-40 17.94-40 40v72c0 4.406 3.578 8 7.1 8S200 348.4 200 344V272c0-13.22 10.77-24 24-24h147.3l-72.69 66.09c-3.281 2.969-3.516 8.031-.5469 11.28C299.7 327.1 301.8 328 304 328c1.922 0 3.844-.6875 5.375-2.094l88.04-80.08c.0469-.043-.0469 .043 0 0C398.1 244.4 400 242.3 400 240S398.1 235.6 397.4 234.2C397.4 234.1 397.5 234.2 397.4 234.2z"/></svg>

<svg xmlns="http://www.w3.org/2000/svg" viewBox="0 0 512 512"><!-- Font Awesome Pro 6.0.0-alpha2 by @fontawesome - https://fontawesome.com License - https://fontawesome.com/license (Commercial License) --><path d="M497.97 222.129L289.871 14.029C280.517 4.676 268.259 0 256 0C243.742 0 231.482 4.676 222.128 14.029L14.029 222.129C4.676 231.482 0 243.741 0 256C0 268.259 4.676 280.518 14.029 289.871L222.128 497.969C231.482 507.322 243.742 512 256 512C268.259 512 280.517 507.322 289.871 497.969L497.97 289.871C507.323 280.518 511.999 268.259 511.999 256C511.999 243.741 507.323 231.482 497.97 222.129ZM486.658 278.557L278.556 486.654C272.533 492.68 264.521 496 256 496C247.48 496 239.468 492.68 233.443 486.654L25.343 278.559C12.906 266.119 12.906 245.881 25.343 233.443L233.443 25.344C239.468 19.318 247.48 16 256 16C264.521 16 272.533 19.318 278.558 25.344L486.658 233.443C499.095 245.881 499.095 266.119 486.658 278.557ZM397.375 234.094L309.375 154.094C306.14 151.094 301.062 151.375 298.078 154.625C295.109 157.875 295.343 162.938 298.625 165.906L371.31 232H224C201.937 232 184 249.938 184 272V344C184 348.406 187.578 352 192 352S200 348.406 200 344V272C200 258.781 210.765 248 224 248H371.31L298.625 314.094C295.343 317.062 295.109 322.125 298.078 325.375C299.656 327.125 301.828 328 304 328C305.921 328 307.843 327.312 309.375 325.906L397.375 245.906C397.421 245.863 397.402 245.781 397.449 245.738C398.992 244.279 400 242.285 400 240S398.992 235.721 397.449 234.262C397.402 234.219 397.421 234.137 397.375 234.094Z"/></svg>
